svg/icinga.svg

<?xml version="1.0" encoding="UTF-8"?> <svg xmlns="http://www.w3.org/2000/svg" width="794" height="790" viewBox="0 0 794 790" fill="none"><path d="M305.182 335.227L493.546 421.045L683.364 254.5C686.169 240.741 687.51 226.723 687.364 212.682C687.396 167.352 672.909 123.203 646.028 86.7041C619.146 50.2051 581.282 23.2744 537.983 9.85781C494.684 -3.55878 448.226 -2.756 405.416 12.1485C362.607 27.0531 325.696 55.2758 300.091 92.6818L268.455 256.682L305.182 335.227Z" fill="#FED10A"></path><path d="M110.273 534.5C107.467 548.505 106.127 562.763 106.273 577.045C106.328 622.563 120.963 666.867 148.031 703.462C175.099 740.057 213.178 767.019 256.685 780.396C300.193 793.774 346.842 792.863 389.794 777.798C432.747 762.733 469.744 734.305 495.364 696.682L526.636 533.409L484.818 453.409L295.727 367.227L110.273 534.5Z" fill="#24BBB1"></path><path d="M109.182 208.976L238.273 239.521L266.636 92.976C249.125 79.568 227.734 72.2085 205.68 72.0044C183.626 71.8002 162.102 78.7626 144.345 91.8441C126.589 104.926 113.56 123.419 107.219 144.543C100.877 165.666 101.566 188.278 109.182 208.976" fill="#EF5098"></path><path d="M97.9091 239.591C69.9795 248.756 45.5772 266.353 28.0607 289.958C10.5442 313.564 0.774765 342.019 0.0969084 371.406C-0.580949 400.793 7.86614 429.668 24.2756 454.056C40.685 478.445 64.25 497.148 91.7272 507.591L272.818 343.955L239.727 273.045L97.9091 239.591Z" fill="#17A8E0"></path><path d="M528.091 696.682C545.614 709.927 566.951 717.15 588.916 717.273C610.882 717.396 632.298 710.412 649.969 697.364C667.639 684.315 680.616 665.903 686.962 644.874C693.308 623.844 692.684 601.327 685.182 580.682L556.455 550.5L528.091 696.682Z" fill="#93C83E"></path><path d="M554.273 516.682L696.091 549.773C724.02 540.607 748.423 523.011 765.939 499.405C783.456 475.799 793.225 447.345 793.903 417.958C794.581 388.571 786.134 359.696 769.724 335.307C753.315 310.919 729.75 292.216 702.273 281.773L516.818 444.318L554.273 516.682Z" fill="#0779A1"></path></svg>

<svg xmlns="http://www.w3.org/2000/svg" width="794" height="790" fill="none" viewBox="0 0 794 790"><path fill="#FED10A" d="m305.182 335.227 188.364 85.818L683.364 254.5a198.99 198.99 0 0 0 4-41.818A212.186 212.186 0 0 0 537.983 9.858a212.184 212.184 0 0 0-237.892 82.824l-31.636 164z"/><path fill="#24BBB1" d="M110.273 534.5a205.85 205.85 0 0 0-4 42.545 213.019 213.019 0 0 0 389.091 119.637l31.272-163.273-41.818-80-189.091-86.182z"/><path fill="#EF5098" d="m109.182 208.976 129.091 30.545 28.363-146.545a101.815 101.815 0 0 0-159.417 51.567 101.81 101.81 0 0 0 1.963 64.433"/><path fill="#17A8E0" d="M97.91 239.591A142.184 142.184 0 0 0 .096 371.406a142.18 142.18 0 0 0 91.63 136.185l181.091-163.636-33.091-70.91z"/><path fill="#93C83E" d="M528.091 696.682a101.819 101.819 0 0 0 157.091-116L556.455 550.5z"/><path fill="#0779A1" d="m554.273 516.682 141.818 33.091a142.186 142.186 0 0 0 97.812-131.815 142.18 142.18 0 0 0-91.63-136.185L516.818 444.318z"/></svg>
